X: 19713
T: Jenny Lind, The
R: polka
M: 2/4
K: Dmajor
|:Af Ge|Fd d/c/B/A/|Ge e/d/c/B/|Ad d/c/B/A/|
Af/A/ Ge/G/|Fd d/c/B/A/|ge c/d/e/c/|df d2:|
|:dB B/c/d/B/|AF FE/F/|GE E/F/G/A/|BA/^G/ AF/A/|dB B/c/d/B/|
AF AF/A/|1 GE [C/c/][D/d/][E/e/][C/c/]|[Dd][Cc] d2:|2 ge c/d/e/c/|df d2||

